24x24/apps/lutris_robocraft.svg

<svg xmlns="http://www.w3.org/2000/svg" width="24" height="24" version="1">
 <path style="fill:#f4f4f7" d="M 10.144531,1.2500007 8.2167968,4.6240241 A 0.25002499,0.25002499 0 0 1 7.9999998,4.7500005 H 4.1455077 L 2.2880859,8.0000004 4.2167968,11.375977 a 0.25002499,0.25002499 0 0 1 0,0.248047 L 2.2880859,15 4.1455077,18.25 h 3.8544921 a 0.25002499,0.25002499 0 0 1 0.216797,0.125977 L 10.145508,21.75 h 3.708984 l 1.92871,-3.374023 A 0.25002499,0.25002499 0 0 1 15.999999,18.25 h 3.854492 L 21.711913,15 19.783202,11.624024 a 0.25002499,0.25002499 0 0 1 0,-0.248047 L 21.711913,8.0000004 19.854491,4.7500005 H 15.999999 A 0.25002499,0.25002499 0 0 1 15.783202,4.6240241 L 13.854492,1.2500007 Z M 9.9999997,7.7500004 H 14 a 0.25002499,0.25002499 0 0 1 0.216797,0.1259765 l 1.999999,3.5000001 a 0.25002499,0.25002499 0 0 1 0,0.248047 l -1.999999,3.5 A 0.25002499,0.25002499 0 0 1 14,15.25 H 9.9999997 a 0.25002499,0.25002499 0 0 1 -0.216797,-0.125976 l -1.9999999,-3.5 a 0.25002499,0.25002499 0 0 1 0,-0.248047 L 9.7832027,7.8759769 a 0.25002499,0.25002499 0 0 1 0.216797,-0.1259765 z"/>
 <path style="opacity:0.2" transform="matrix(0.57735028,0,0,0.58333333,5.2547044,8.4999979)" d="m 15.147295,12.000004 3.464102,5.999999 -3.464101,6.000001 -6.9282031,0 -3.4641018,-6 3.4641012,-6 z"/>
 <path style="fill:#f4f4f7" transform="matrix(0.57735028,0,0,0.58333333,5.2547044,7.9999979)" d="m 15.147295,12.000004 3.464102,5.999999 -3.464101,6.000001 -6.9282031,0 -3.4641018,-6 3.4641012,-6 z"/>
 <path style="opacity:0.2" transform="matrix(0.57735028,0,0,0.58333333,-0.74529539,4.9999975)" d="m 15.147295,12.000004 3.464102,5.999999 -3.464101,6.000001 -6.9282031,0 -3.4641018,-6 3.4641012,-6 z"/>
 <path style="fill:#f4f4f7" transform="matrix(0.57735028,0,0,0.58333333,-0.74529539,4.4999979)" d="m 15.147295,12.000004 3.464102,5.999999 -3.464101,6.000001 -6.9282031,0 -3.4641018,-6 3.4641012,-6 z"/>
 <path style="opacity:0.2" transform="matrix(0.57735028,0,0,0.58333333,11.254705,-2.0000011)" d="m 15.147295,12.000004 3.464102,5.999999 -3.464101,6.000001 -6.9282031,0 -3.4641018,-6 3.4641012,-6 z"/>
 <path style="fill:#fb8902" transform="matrix(0.57735028,0,0,0.58333333,11.254705,-2.5000009)" d="m 15.147295,12.000004 3.464102,5.999999 -3.464101,6.000001 -6.9282031,0 -3.4641018,-6 3.4641012,-6 z"/>
 <path style="opacity:0.2" transform="matrix(0.57735028,0,0,0.58333333,-0.74529539,-2.0000004)" d="m 15.147295,12.000004 3.464102,5.999999 -3.464101,6.000001 -6.9282031,0 -3.4641018,-6 3.4641012,-6 z"/>
 <path style="fill:#f4f4f7" transform="matrix(0.57735028,0,0,0.58333333,-0.74529539,-2.5000003)" d="m 15.147295,12.000004 3.464102,5.999999 -3.464101,6.000001 -6.9282031,0 -3.4641018,-6 3.4641012,-6 z"/>
 <path style="opacity:0.2" transform="matrix(0.57735028,0,0,0.58333333,5.2547044,-5.5000005)" d="m 15.147295,12.000004 3.464102,5.999999 -3.464101,6.000001 -6.9282031,0 -3.4641018,-6 3.4641012,-6 z"/>
 <path style="fill:#f4f4f7" transform="matrix(0.57735028,0,0,0.58333333,5.2547044,-6.0000005)" d="m 15.147295,12.000004 3.464102,5.999999 -3.464101,6.000001 -6.9282031,0 -3.4641018,-6 3.4641012,-6 z"/>
 <path style="opacity:0.2" transform="matrix(0.57735028,0,0,0.58333333,11.254705,4.999997)" d="m 15.147295,12.000004 3.464102,5.999999 -3.464101,6.000001 -6.9282031,0 -3.4641018,-6 3.4641012,-6 z"/>
 <path style="fill:#f4f4f7" transform="matrix(0.57735028,0,0,0.58333333,11.254705,4.4999974)" d="m 15.147295,12.000004 3.464102,5.999999 -3.464101,6.000001 -6.9282031,0 -3.4641018,-6 3.4641012,-6 z"/>
 <path style="opacity:0.2;fill:#f4f4f7" d="M 9.9999997,1.0000007 7.9999998,4.5000006 8.1425778,4.7500005 9.9999997,1.5000007 H 14 L 15.857421,4.7500005 15.999999,4.5000006 14,1.0000007 Z"/>
 <path style="opacity:0.2;fill:#f4f4f7" d="M 3.9999999,4.5000006 2,8.0000004 l 0.1425781,0.25 1.8574218,-3.2499999 h 3.9999999 l 0.142578,-0.25 -0.142578,-0.2499999 z"/>
 <path style="opacity:0.2;fill:#f4f4f7" d="m 15.999999,4.5000006 -0.142578,0.2499999 0.142578,0.25 h 4 l 1.857422,3.2499999 0.142578,-0.25 -2,-3.4999998 z"/>
 <path style="opacity:0.2;fill:#f4f4f7" d="m 9.9999997,15 -0.142578,0.25 0.142578,0.25 H 14 L 14.142578,15.25 14,15 Z"/>
 <path style="opacity:0.2;fill:#f4f4f7" d="M 16 11.5 L 14 15 L 14.142578 15.25 L 16 12 L 20 12 L 21.857422 15.25 L 22 15 L 20 11.5 L 16 11.5 z"/>
</svg>

<svg xmlns="http://www.w3.org/2000/svg" width="24" height="24" version="1"><path style="fill:#f4f4f7" d="M10.145 1.25 8.217 4.624A.25.25 0 0 1 8 4.75H4.146L2.288 8l1.929 3.376a.25.25 0 0 1 0 .248L2.288 15l1.858 3.25H8a.25.25 0 0 1 .217.126l1.929 3.374h3.708l1.93-3.374A.25.25 0 0 1 16 18.25h3.854L21.712 15l-1.929-3.376a.25.25 0 0 1 0-.248L21.712 8l-1.858-3.25H16a.25.25 0 0 1-.217-.126L13.854 1.25zM10 7.75h4a.25.25 0 0 1 .217.126l2 3.5a.25.25 0 0 1 0 .248l-2 3.5a.25.25 0 0 1-.217.126h-4a.25.25 0 0 1-.217-.126l-2-3.5a.25.25 0 0 1 0-.248l2-3.5A.25.25 0 0 1 10 7.75z"/><path style="opacity:.2" transform="matrix(.57735 0 0 .58333 5.255 8.5)" d="m15.147 12 3.464 6-3.464 6H8.22l-3.464-6 3.464-6z"/><path style="fill:#f4f4f7" transform="matrix(.57735 0 0 .58333 5.255 8)" d="m15.147 12 3.464 6-3.464 6H8.22l-3.464-6 3.464-6z"/><path style="opacity:.2" transform="matrix(.57735 0 0 .58333 -.745 5)" d="m15.147 12 3.464 6-3.464 6H8.22l-3.464-6 3.464-6z"/><path style="fill:#f4f4f7" transform="matrix(.57735 0 0 .58333 -.745 4.5)" d="m15.147 12 3.464 6-3.464 6H8.22l-3.464-6 3.464-6z"/><path style="opacity:.2" transform="matrix(.57735 0 0 .58333 11.255 -2)" d="m15.147 12 3.464 6-3.464 6H8.22l-3.464-6 3.464-6z"/><path style="fill:#fb8902" transform="matrix(.57735 0 0 .58333 11.255 -2.5)" d="m15.147 12 3.464 6-3.464 6H8.22l-3.464-6 3.464-6z"/><path style="opacity:.2" transform="matrix(.57735 0 0 .58333 -.745 -2)" d="m15.147 12 3.464 6-3.464 6H8.22l-3.464-6 3.464-6z"/><path style="fill:#f4f4f7" transform="matrix(.57735 0 0 .58333 -.745 -2.5)" d="m15.147 12 3.464 6-3.464 6H8.22l-3.464-6 3.464-6z"/><path style="opacity:.2" transform="matrix(.57735 0 0 .58333 5.255 -5.5)" d="m15.147 12 3.464 6-3.464 6H8.22l-3.464-6 3.464-6z"/><path style="fill:#f4f4f7" transform="matrix(.57735 0 0 .58333 5.255 -6)" d="m15.147 12 3.464 6-3.464 6H8.22l-3.464-6 3.464-6z"/><path style="opacity:.2" transform="matrix(.57735 0 0 .58333 11.255 5)" d="m15.147 12 3.464 6-3.464 6H8.22l-3.464-6 3.464-6z"/><path style="fill:#f4f4f7" transform="matrix(.57735 0 0 .58333 11.255 4.5)" d="m15.147 12 3.464 6-3.464 6H8.22l-3.464-6 3.464-6z"/><path style="opacity:.2;fill:#f4f4f7" d="M10 1 8 4.5l.143.25L10 1.5h4l1.857 3.25L16 4.5 14 1z"/><path style="opacity:.2;fill:#f4f4f7" d="M4 4.5 2 8l.143.25L4 5h4l.143-.25L8 4.5zM16 4.5l-.143.25L16 5h4l1.857 3.25L22 8l-2-3.5zM10 15l-.143.25.143.25h4l.143-.25L14 15z"/><path style="opacity:.2;fill:#f4f4f7" d="M16 11.5 14 15l.143.25L16 12h4l1.857 3.25L22 15l-2-3.5h-4z"/></svg>
